; generated by PrusaSlicer 2.1.0+win64 on 2019-10-04 at 11:40:24 UTC

; 

; external perimeters extrusion width = 0.45mm
; perimeters extrusion width = 0.45mm
; infill extrusion width = 0.45mm
; solid infill extrusion width = 0.45mm
; top infill extrusion width = 0.40mm
; first layer extrusion width = 0.42mm

; external perimeters extrusion width = 0.45mm
; perimeters extrusion width = 0.45mm
; infill extrusion width = 0.45mm
; solid infill extrusion width = 0.45mm
; top infill extrusion width = 0.40mm
; first layer extrusion width = 0.42mm

; external perimeters extrusion width = 0.45mm
; perimeters extrusion width = 0.45mm
; infill extrusion width = 0.45mm
; solid infill extrusion width = 0.45mm
; top infill extrusion width = 0.40mm
; first layer extrusion width = 0.42mm

; external perimeters extrusion width = 0.45mm
; perimeters extrusion width = 0.45mm
; infill extrusion width = 0.45mm
; solid infill extrusion width = 0.45mm
; top infill extrusion width = 0.40mm
; first layer extrusion width = 0.42mm

M73 P0 R61
M73 Q0 S62
M201 X1000 Y1000 Z1000 E8000 ; sets maximum accelerations, mm/sec^2
M203 X200 Y200 Z12 E120 ; sets maximum feedrates, mm/sec
M204 P1250 R1250 T1250 ; sets acceleration (P, T) and retract acceleration (R), mm/sec^2
M205 X8.00 Y8.00 Z0.40 E1.50 ; sets the jerk limits, mm/sec
M205 S0 T0 ; sets the minimum extruding and travel feed rate, mm/sec
M107
M862.3 P "MK3SMMU2S" ; printer model check
M862.1 P0.4 ; nozzle diameter check
M115 U3.8.0 ; tell printer latest fw version
G90 ; use absolute coordinates
M83 ; extruder relative mode
M104 S215 ; set extruder temp
M140 S60 ; set bed temp
M190 S60 ; wait for bed temp
M109 S215 ; wait for extruder temp
G28 W ; home all without mesh bed level
G80 ; mesh bed leveling
G21 ; set units to millimeters

; Send the filament type to the MMU2.0 unit.
; E stands for extruder number, F stands for filament type (0: default; 1:flex; 2: PVA)
M403 E0 F0
M403 E1 F0
M403 E2 F0
M403 E3 F0
M403 E4 F0


;go outside print area
G1 Y-3.0 F1000.0
G1 Z0.4 F1000.0
; select extruder
T2
; initial load
G1 X55.0 E29.0 F1073.0
M73 Q0 S62
M73 P0 R61
G1 X5.0 E29.0 F1800.0
G1 X55.0 E8.0 F2000.0
G1 Z0.3 F1000.0
G92 E0.0
G1 X240.0 E25.0 F2200.0
G1 Y-2.0 F1000.0
G1 X55.0 E25 F1400.0
G1 Z0.20 F1000.0
G1 X5.0 E4.0 F1000.0
G92 E0.0


M221 S95
G92 E0.0
G21 ; set units to millimeters
G90 ; use absolute coordinates
M83 ; use relative distances for extrusion
T2
M900 K30 ; Filament gcode
G1 Z0.200 F10800.000
;BEFORE_LAYER_CHANGE
G92 E0.0
;0.2


G1 E-0.80000 F2100.00000
G1 Z0.800 F10800.000
G1 Z0.200
;AFTER_LAYER_CHANGE
;0.2
G1 E-2.20000 F2100.00000
G1 Z0.800 F10800.000
G1 X233.000 Y125.000
G1 Z0.200
G1 E3.00000 F2100.00000
;-------------------------------------
; CP WIPE TOWER FIRST LAYER BRIM START
G1  X233.000 Y139.060 E0.8016 F2400
G1  X230.457 Y139.517  F7000
G1  Y124.543 E0.6260 F2100
G1  X169.543 E2.5466
G1  Y139.517 E0.6260
G1  X230.457 E2.5466
G1  X230.914 Y139.974  F7000
G1  Y124.086 E0.6642 F2100
G1  X169.086 E2.5849
G1  Y139.974 E0.6642
G1  X230.914 E2.5849
G1  X231.371 Y140.431  F7000
G1  Y123.629 E0.7025 F2100
G1  X168.629 E2.6231
G1  Y140.431 E0.7025
G1  X231.371 E2.6231
G1  X231.828 Y140.888  F7000
G1  Y123.172 E0.7407 F2100
G1  X168.172 E2.6613
G1  Y140.888 E0.7407
G1  X231.828 E2.6613
G1  X230.000 Y139.060  F7000
G1  X170.000
G1  X230.000
; CP WIPE TOWER FIRST LAYER BRIM END
;-----------------------------------

G1 F8640
G1 X226.709 Y139.060 E-0.76000
G1 E-0.04000 F2100.00000
G1 Z0.800 F10800.000
G1 X158.847 Y100.817
G1 Z0.200
G1 E0.80000 F2100.00000
M204 S1000
G1 F1200
G1 X157.987 Y100.995 E0.02754
G1 X89.734 Y100.995 E2.14003
G1 X89.115 Y100.895 E0.01964
G1 X88.551 Y100.624 E0.01964
G1 X88.088 Y100.207 E0.01953
G1 X87.760 Y99.673 E0.01964
G1 X87.582 Y98.820 E0.02732
G1 X87.583 Y71.545 E0.85517
G1 X87.692 Y70.943 E0.01919
G1 X87.966 Y70.392 E0.01930
G1 X88.382 Y69.938 E0.01930
G1 X88.905 Y69.620 E0.01919
G1 X89.765 Y69.441 E0.02754
G1 X157.987 Y69.441 E2.13906
G1 X158.807 Y69.602 E0.02620
G1 X159.509 Y70.061 E0.02631
G1 X159.987 Y70.750 E0.02631
G1 X160.171 Y71.569 E0.02631
G1 X160.169 Y98.907 E0.85717
G1 X160.057 Y99.505 E0.01908
G1 X159.783 Y100.052 E0.01919
G1 X159.370 Y100.499 E0.01908
G1 X158.899 Y100.786 E0.01731
G1 F8640
G1 X157.987 Y100.995 E-0.21594
G1 X155.631 Y100.995 E-0.54406
G1 E-0.04000 F2100.00000
G1 Z0.800 F10800.000
G1 X130.117 Y72.670
G1 Z0.200
G1 E0.80000 F2100.00000
G1 F1200
G1 X130.181 Y72.873 E0.00666
G1 X130.296 Y72.895 E0.00368
G1 X130.761 Y73.105 E0.01600
G1 X131.607 Y73.320 E0.02737
G1 X132.485 Y73.606 E0.02896
G1 X133.194 Y73.808 E0.02311
G1 X134.114 Y74.164 E0.03093
G1 X134.841 Y74.297 E0.02316
G1 X134.856 Y74.462 E0.00522
G1 X135.037 Y74.496 E0.00576
G1 X134.834 Y74.833 E0.01234
G1 X134.084 Y75.758 E0.03735
G1 X133.635 Y76.414 E0.02490
G1 X133.331 Y76.768 E0.01463
G1 X134.755 Y77.683 E0.05307
G1 X135.535 Y78.243 E0.03011
G1 X136.271 Y78.853 E0.02997
G1 X136.625 Y79.183 E0.01519
G1 X137.287 Y79.882 E0.03019
G1 X137.884 Y80.642 E0.03028
G1 X138.155 Y81.047 E0.01530
G1 X138.402 Y81.466 E0.01524
G1 X138.625 Y81.898 E0.01525
G1 X138.823 Y82.342 E0.01525
G1 X138.996 Y82.797 E0.01525
G1 X139.141 Y83.261 E0.01524
G1 X139.260 Y83.734 E0.01530
G1 X139.380 Y84.452 E0.02281
G1 X139.413 Y84.942 E0.01542
G1 X139.404 Y85.435 E0.01544
G1 X139.315 Y86.158 E0.02286
G1 X139.212 Y86.637 E0.01533
G1 X139.081 Y87.105 E0.01524
G1 X138.921 Y87.564 E0.01524
G1 X138.735 Y88.013 E0.01524
G1 X138.525 Y88.451 E0.01523
G1 X138.291 Y88.876 E0.01522
G1 X138.034 Y89.290 E0.01527
G1 X137.467 Y90.067 E0.03016
G1 X137.154 Y90.440 E0.01527
G1 X136.493 Y91.137 E0.03011
G1 X135.774 Y91.773 E0.03011
G1 X135.387 Y92.070 E0.01530
G1 X134.448 Y92.693 E0.03533
G1 X135.357 Y94.270 E0.05706
G1 X135.550 Y94.665 E0.01378
G1 X135.526 Y94.921 E0.00807
G1 X135.320 Y95.048 E0.00760
G1 X134.775 Y95.190 E0.01765
G1 X133.859 Y95.597 E0.03144
G1 X130.853 Y96.714 E0.10056
G1 X129.134 Y94.914 E0.07804
G1 X128.586 Y95.060 E0.01778
G1 X127.096 Y95.330 E0.04747
G1 X126.348 Y95.444 E0.02373
G1 X125.594 Y95.534 E0.02381
G1 X124.084 Y95.630 E0.04745
G1 X122.570 Y95.643 E0.04746
G1 X121.060 Y95.586 E0.04738
G1 X120.301 Y95.516 E0.02390
G1 X118.454 Y95.256 E0.05849
G1 X118.080 Y95.661 E0.01727
G1 X117.032 Y97.025 E0.05393
G1 X116.864 Y97.153 E0.00664
G1 X116.643 Y97.203 E0.00711
G1 X116.297 Y97.131 E0.01106
G1 X115.939 Y96.978 E0.01222
G1 X113.467 Y96.056 E0.08271
G1 X112.810 Y95.754 E0.02270
G1 X112.558 Y95.670 E0.00831
G1 X112.284 Y95.618 E0.00876
G1 X112.122 Y95.541 E0.00562
G1 X112.002 Y95.355 E0.00693
G1 X112.026 Y95.143 E0.00671
G1 X112.513 Y94.347 E0.02925
G1 X112.855 Y93.696 E0.02304
G1 X113.058 Y93.409 E0.01105
G1 X111.860 Y92.698 E0.04370
G1 X110.919 Y92.058 E0.03568
G1 X110.317 Y91.586 E0.02396
G1 X108.984 Y90.409 E0.05576
G1 X112.646 Y86.419 E0.16981
G1 X113.331 Y87.104 E0.03036
G1 X114.052 Y87.729 E0.02993
G1 X114.784 Y88.286 E0.02884
G1 X114.885 Y86.811 E0.04636
G1 X114.909 Y85.510 E0.04080
G1 X114.893 Y84.842 E0.02096
G1 X114.852 Y84.206 E0.01999
G1 X114.694 Y82.992 E0.03837
G1 X114.608 Y81.991 E0.03151
G1 X113.664 Y82.745 E0.03790
G1 X113.207 Y83.183 E0.01984
G1 X112.719 Y83.726 E0.02290
G1 X112.631 Y83.769 E0.00306
G1 X112.670 Y83.897 E0.00422
G1 X112.443 Y83.860 E0.00720
G1 X112.299 Y83.930 E0.00502
G1 X112.280 Y83.833 E0.00310
G1 X112.157 Y83.813 E0.00392
G1 X111.941 Y83.676 E0.00800
G1 X111.795 Y83.519 E0.00672
G1 X111.573 Y83.175 E0.01283
G1 X111.110 Y82.356 E0.02951
G1 X110.744 Y81.882 E0.01879
G1 X110.316 Y81.468 E0.01866
G1 X109.322 Y80.639 E0.04058
G1 X109.086 Y80.327 E0.01225
G1 X109.006 Y80.054 E0.00894
G1 X109.023 Y79.887 E0.00525
G1 X109.082 Y79.734 E0.00514
G1 X109.315 Y79.438 E0.01180
G1 X110.633 Y78.335 E0.05389
G1 X111.151 Y77.954 E0.02016
G1 X111.699 Y77.588 E0.02068
G1 X112.266 Y77.227 E0.02106
G1 X112.783 Y76.936 E0.01860
G1 X112.152 Y75.735 E0.04255
G1 X112.026 Y75.423 E0.01053
G1 X112.014 Y75.277 E0.00460
G1 X112.084 Y75.125 E0.00525
G1 X112.241 Y75.023 E0.00585
G1 X112.607 Y74.912 E0.01202
G1 X112.784 Y74.835 E0.00604
G1 X113.463 Y74.451 E0.02447
G1 X116.407 Y73.061 E0.10208
G1 X118.252 Y74.987 E0.08361
G1 X119.029 Y74.840 E0.02482
G1 X120.852 Y74.616 E0.05756
G1 X121.771 Y74.543 E0.02890
M73 Q2 S61
G1 X123.150 Y74.510 E0.04327
G1 X124.528 Y74.551 E0.04324
G1 X125.900 Y74.651 E0.04313
G1 X126.816 Y74.763 E0.02891
G1 X128.423 Y75.031 E0.05111
G1 X128.825 Y74.519 E0.02041
G1 X129.917 Y72.957 E0.05975
G1 X129.881 Y72.817 E0.00452
G1 X129.999 Y72.839 E0.00377
G1 X130.083 Y72.720 E0.00458
G1 X130.314 Y72.590 F10800.000
G1 X129.830 Y72.424
G1 F1200
G1 X129.369 Y72.338 E0.01470
G1 X129.509 Y72.883 E0.01764
G1 X128.522 Y74.294 E0.05399
G1 X128.265 Y74.623 E0.01308
G1 X126.870 Y74.390 E0.04435
G1 X125.937 Y74.276 E0.02945
G1 X124.548 Y74.174 E0.04368
G1 X123.151 Y74.132 E0.04381
G1 X121.751 Y74.166 E0.04391
G1 X120.814 Y74.241 E0.02948
G1 X118.971 Y74.467 E0.05820
M73 P2 R60
G1 X118.382 Y74.578 E0.01879
G1 X116.492 Y72.604 E0.08571
G1 X113.289 Y74.116 E0.11103
G1 X112.616 Y74.497 E0.02426
G1 X112.079 Y74.678 E0.01776
G1 X111.788 Y74.868 E0.01090
G1 X111.629 Y75.209 E0.01178
G1 X111.655 Y75.511 E0.00953
G1 X111.809 Y75.893 E0.01290
G1 X112.279 Y76.787 E0.03167
G1 X111.494 Y77.272 E0.02893
G1 X110.934 Y77.645 E0.02108
G1 X110.400 Y78.039 E0.02080
G1 X109.043 Y79.174 E0.05548
G1 X108.751 Y79.546 E0.01482
G1 X108.653 Y79.799 E0.00851
G1 X108.624 Y80.088 E0.00913
G1 X108.743 Y80.500 E0.01343
G1 X109.048 Y80.901 E0.01578
G1 X110.063 Y81.749 E0.04149
G1 X110.462 Y82.134 E0.01737
G1 X110.795 Y82.565 E0.01708
G1 X111.250 Y83.371 E0.02901
G1 X111.496 Y83.752 E0.01422
G1 X111.698 Y83.969 E0.00930
G1 X111.955 Y84.131 E0.00953
G1 X112.025 Y84.483 E0.01125
G1 X112.501 Y84.252 E0.01660
G1 X113.206 Y84.368 E0.02243
G1 X113.066 Y83.904 E0.01520
G1 X113.478 Y83.446 E0.01933
G1 X113.914 Y83.027 E0.01894
G1 X114.294 Y82.717 E0.01538
G1 X114.318 Y83.031 E0.00990
G1 X114.477 Y84.242 E0.03829
G1 X114.516 Y84.859 E0.01937
G1 X114.532 Y85.511 E0.02047
G1 X114.508 Y86.795 E0.04025
G1 X114.455 Y87.563 E0.02412
G1 X113.588 Y86.828 E0.03564
G1 X112.634 Y85.874 E0.04229
G1 X108.446 Y90.437 E0.19421
G1 X110.076 Y91.876 E0.06816
G1 X110.696 Y92.362 E0.02471
G1 X111.657 Y93.016 E0.03644
G1 X112.518 Y93.527 E0.03139
G1 X112.185 Y94.160 E0.02246
G1 X111.661 Y95.017 E0.03149
G1 X111.612 Y95.446 E0.01353
G1 X111.863 Y95.836 E0.01455
G1 X112.167 Y95.979 E0.01052
G1 X112.463 Y96.036 E0.00946
G1 X112.671 Y96.105 E0.00687
G1 X113.323 Y96.405 E0.02249
G1 X115.799 Y97.328 E0.08286
G1 X116.184 Y97.493 E0.01312
G1 X116.646 Y97.589 E0.01481
G1 X117.027 Y97.503 E0.01224
G1 X117.301 Y97.294 E0.01079
G1 X118.371 Y95.901 E0.05508
G1 X118.590 Y95.656 E0.01031
G1 X120.257 Y95.891 E0.05281
G1 X121.036 Y95.963 E0.02450
G1 X122.565 Y96.020 E0.04797
G1 X124.097 Y96.007 E0.04805
G1 X125.628 Y95.909 E0.04809
G1 X126.399 Y95.818 E0.02433
G1 X127.158 Y95.702 E0.02409
G1 X128.668 Y95.428 E0.04811
G1 X129.015 Y95.336 E0.01127
G1 X130.752 Y97.154 E0.07883
G1 X134.001 Y95.946 E0.10870
G1 X134.900 Y95.547 E0.03084
G1 X135.470 Y95.399 E0.01846
G1 X135.885 Y95.143 E0.01528
G1 X135.935 Y94.594 E0.01728
G1 X135.690 Y94.092 E0.01752
G1 X134.948 Y92.817 E0.04624
G1 X135.606 Y92.377 E0.02482
G1 X136.014 Y92.065 E0.01610
G1 X136.755 Y91.408 E0.03105
G1 X137.436 Y90.692 E0.03098
G1 X137.764 Y90.300 E0.01604
G1 X138.347 Y89.500 E0.03100
G1 X138.616 Y89.067 E0.01602
G1 X138.860 Y88.624 E0.01585
G1 X139.080 Y88.167 E0.01589
G1 X139.274 Y87.698 E0.01592
G1 X139.440 Y87.218 E0.01594
G1 X139.578 Y86.727 E0.01597
G1 X139.687 Y86.221 E0.01624
G1 X139.780 Y85.461 E0.02400
G1 X139.790 Y84.933 E0.01656
G1 X139.755 Y84.408 E0.01650
G1 X139.629 Y83.657 E0.02387
G1 X139.504 Y83.158 E0.01613
G1 X139.352 Y82.673 E0.01593
G1 X139.172 Y82.198 E0.01593
G1 X138.965 Y81.734 E0.01593
G1 X138.732 Y81.283 E0.01592
G1 X138.474 Y80.847 E0.01590
G1 X138.189 Y80.420 E0.01608
G1 X137.573 Y79.636 E0.03128
G1 X136.891 Y78.915 E0.03111
G1 X136.520 Y78.569 E0.01590
G1 X135.766 Y77.944 E0.03072
G1 X134.966 Y77.370 E0.03087
G1 X133.894 Y76.691 E0.03978
G1 X134.386 Y75.984 E0.02702
G1 X135.143 Y75.050 E0.03769
G1 X135.641 Y74.224 E0.03024
G1 X135.205 Y74.144 E0.01389
G1 X135.190 Y73.977 E0.00525
G1 X134.217 Y73.800 E0.03102
G1 X133.314 Y73.450 E0.03035
G1 X132.595 Y73.245 E0.02344
G1 X131.712 Y72.958 E0.02913
G1 X130.886 Y72.748 E0.02672
G1 X130.479 Y72.564 E0.01400
G1 X130.371 Y72.217 E0.01140
G1 X156.175 Y72.217 E0.80906
G1 X156.174 Y98.220 E0.81530
G1 X91.580 Y98.220 E2.02530
G1 X91.580 Y72.217 E0.81530
G1 X129.975 Y72.217 E1.20384
G1 X129.864 Y72.375 E0.00605
G1 F8640
G1 X129.369 Y72.338 E-0.11463
G1 X129.509 Y72.883 E-0.12993
G1 X128.522 Y74.294 E-0.39763
G1 X128.265 Y74.623 E-0.09630
G1 X128.173 Y74.607 E-0.02150
G1 E-0.04000 F2100.00000
G1 Z0.800 F10800.000
G1 X156.551 Y71.840
G1 Z0.200
G1 E0.80000 F2100.00000
G1 F1200
G1 X156.551 Y98.597 E0.83895
G1 X91.203 Y98.597 E2.04894
G1 X91.203 Y71.840 E0.83895
G1 X156.491 Y71.840 E2.04707
G1 X156.398 Y72.209 F10800.000
G1 F8640
G1 X156.498 Y75.131 E-0.76000
G1 E-0.04000 F2100.00000
G1 Z0.800 F10800.000
G1 X123.979 Y89.980
G1 Z0.200
G1 E0.80000 F2100.00000
G1 F1200
G1 X123.416 Y89.990 E0.01764
G1 X121.268 Y89.957 E0.06738
G1 X120.679 Y89.894 E0.01856
G1 X120.513 Y89.856 E0.00535
G1 X120.505 Y88.949 E0.02844
G1 X120.532 Y86.312 E0.08266
G1 X123.938 Y89.936 E0.15593
G1 X124.836 Y90.342 F10800.000
G1 F1200
G1 X123.417 Y90.367 E0.04452
G1 X121.245 Y90.333 E0.06811
G1 X120.616 Y90.267 E0.01981
G1 X120.147 Y90.158 E0.01510
G1 X120.128 Y88.946 E0.03801
G1 X120.165 Y85.371 E0.11211
G1 X124.795 Y90.298 E0.21201
G1 X124.438 Y90.308 F10800.000
G1 F8640
G1 X123.417 Y90.367 E-0.31870
G1 X121.506 Y90.337 E-0.44130
G1 E-0.04000 F2100.00000
G1 Z0.800 F10800.000
G1 X132.505 Y87.171
G1 Z0.200
G1 E0.80000 F2100.00000
G1 F1200
G1 X132.305 Y86.367 E0.02598
G1 X132.207 Y85.858 E0.01623
G1 X132.078 Y84.803 E0.03334
G1 X132.008 Y83.183 E0.05083
G1 X132.013 Y82.578 E0.01899
G1 X132.413 Y82.896 E0.01603
G1 X132.780 Y83.261 E0.01623
G1 X133.112 Y83.661 E0.01631
G1 X133.381 Y84.084 E0.01572
G1 X133.471 Y84.274 E0.00658
G1 X133.575 Y84.595 E0.01058
G1 X133.624 Y84.932 E0.01068
G1 X133.604 Y85.379 E0.01405
G1 X133.559 Y85.603 E0.00715
G1 X133.403 Y86.020 E0.01397
G1 X133.160 Y86.413 E0.01447
G1 X132.826 Y86.823 E0.01658
G1 X132.545 Y87.127 E0.01298
G1 X132.312 Y87.878 F10800.000
G1 F1200
G1 X132.201 Y87.511 E0.01202
G1 X131.937 Y86.448 E0.03435
G1 X131.834 Y85.917 E0.01694
G1 X131.702 Y84.834 E0.03422
G1 X131.630 Y83.190 E0.05160
G1 X131.640 Y82.071 E0.03509
G1 X131.679 Y81.833 E0.00755
G1 X132.664 Y82.614 E0.03940
G1 X133.058 Y83.006 E0.01744
G1 X133.417 Y83.439 E0.01763
G1 X133.712 Y83.902 E0.01720
G1 X133.822 Y84.134 E0.00807
G1 X133.943 Y84.509 E0.01234
G1 X134.001 Y84.903 E0.01248
G1 X134.003 Y85.167 E0.00830
G1 X133.978 Y85.435 E0.00842
G1 X133.925 Y85.697 E0.00838
G1 X133.846 Y85.949 E0.00828
G1 X133.741 Y86.188 E0.00820
G1 X133.463 Y86.638 E0.01655
G1 X133.111 Y87.070 E0.01748
G1 X132.726 Y87.487 E0.01780
G1 X132.356 Y87.837 E0.01597
G1 X132.336 Y87.495 F10800.000
G1 F8640
G1 X132.201 Y87.511 E-0.08327
G1 X131.937 Y86.448 E-0.25299
G1 X131.834 Y85.917 E-0.12477
G1 X131.702 Y84.834 E-0.25199
G1 X131.693 Y84.631 E-0.04698
G1 E-0.04000 F2100.00000
G1 Z0.800 F10800.000
G1 X126.447 Y83.084
G1 Z0.200
G1 E0.80000 F2100.00000
G1 F1200
G1 X125.815 Y82.452 E0.02804
G1 X123.542 Y80.034 E0.10405
G1 X124.153 Y80.083 E0.01922
G1 X126.513 Y80.342 E0.07444
G1 X126.513 Y82.211 E0.05857
G1 X126.463 Y82.668 E0.01442
G1 X126.449 Y83.024 E0.01118
G1 F8640
G1 X125.815 Y82.452 E-0.19734
G1 X124.146 Y80.676 E-0.56266
G1 E-0.04000 F2100.00000
G1 Z0.800 F10800.000
G1 X126.910 Y84.178
G1 Z0.200
G1 E0.80000 F2100.00000
G1 F1200
G1 X126.359 Y83.529 E0.02670
G1 X125.544 Y82.714 E0.03613
G1 X123.209 Y80.230 E0.10691
G1 X122.724 Y79.681 E0.02295
G1 X123.024 Y79.647 E0.00944
G1 X123.457 Y79.649 E0.01359
G1 X126.085 Y79.905 E0.08280
G1 X126.890 Y80.012 E0.02545
G1 X126.890 Y82.231 E0.06957
G1 X126.839 Y82.696 E0.01465
G1 X126.823 Y83.112 E0.01307
G1 X126.847 Y83.607 E0.01555
