; generated by PrusaSlicer 2.1.0+win64 on 2019-10-04 at 11:38:49 UTC

; 

; external perimeters extrusion width = 0.45mm
; perimeters extrusion width = 0.45mm
; infill extrusion width = 0.45mm
; solid infill extrusion width = 0.45mm
; top infill extrusion width = 0.40mm
; first layer extrusion width = 0.42mm

; external perimeters extrusion width = 0.45mm
; perimeters extrusion width = 0.45mm
; infill extrusion width = 0.45mm
; solid infill extrusion width = 0.45mm
; top infill extrusion width = 0.40mm
; first layer extrusion width = 0.42mm

; external perimeters extrusion width = 0.45mm
; perimeters extrusion width = 0.45mm
; infill extrusion width = 0.45mm
; solid infill extrusion width = 0.45mm
; top infill extrusion width = 0.40mm
; first layer extrusion width = 0.42mm

; external perimeters extrusion width = 0.45mm
; perimeters extrusion width = 0.45mm
; infill extrusion width = 0.45mm
; solid infill extrusion width = 0.45mm
; top infill extrusion width = 0.40mm
; first layer extrusion width = 0.42mm

M73 P0 R118
M73 Q0 S119
M201 X1000 Y1000 Z1000 E8000 ; sets maximum accelerations, mm/sec^2
M203 X200 Y200 Z12 E120 ; sets maximum feedrates, mm/sec
M204 P1250 R1250 T1250 ; sets acceleration (P, T) and retract acceleration (R), mm/sec^2
M205 X8.00 Y8.00 Z0.40 E1.50 ; sets the jerk limits, mm/sec
M205 S0 T0 ; sets the minimum extruding and travel feed rate, mm/sec
M107
M862.3 P "MK3SMMU2S" ; printer model check
M862.1 P0.4 ; nozzle diameter check
M115 U3.8.0 ; tell printer latest fw version
G90 ; use absolute coordinates
M83 ; extruder relative mode
M104 S215 ; set extruder temp
M140 S60 ; set bed temp
M190 S60 ; wait for bed temp
M109 S215 ; wait for extruder temp
G28 W ; home all without mesh bed level
G80 ; mesh bed leveling
G21 ; set units to millimeters

; Send the filament type to the MMU2.0 unit.
; E stands for extruder number, F stands for filament type (0: default; 1:flex; 2: PVA)
M403 E0 F0
M403 E1 F0
M403 E2 F0
M403 E3 F0
M403 E4 F0


;go outside print area
G1 Y-3.0 F1000.0
G1 Z0.4 F1000.0
; select extruder
T2
; initial load
G1 X55.0 E29.0 F1073.0
M73 Q0 S119
M73 P0 R118
G1 X5.0 E29.0 F1800.0
G1 X55.0 E8.0 F2000.0
G1 Z0.3 F1000.0
G92 E0.0
G1 X240.0 E25.0 F2200.0
G1 Y-2.0 F1000.0
G1 X55.0 E25 F1400.0
G1 Z0.20 F1000.0
G1 X5.0 E4.0 F1000.0
G92 E0.0


M221 S95
G92 E0.0
G21 ; set units to millimeters
G90 ; use absolute coordinates
M83 ; use relative distances for extrusion
T2
M900 K30 ; Filament gcode
G1 Z0.200 F10800.000
;BEFORE_LAYER_CHANGE
G92 E0.0
;0.2


G1 E-0.80000 F2100.00000
G1 Z0.800 F10800.000
G1 Z0.200
;AFTER_LAYER_CHANGE
;0.2
G1 E-2.20000 F2100.00000
G1 Z0.800 F10800.000
G1 X233.000 Y125.000
G1 Z0.200
G1 E3.00000 F2100.00000
;-------------------------------------
; CP WIPE TOWER FIRST LAYER BRIM START
G1  X233.000 Y139.060 E0.8016 F2400
G1  X230.457 Y139.517  F7000
G1  Y124.543 E0.6260 F2100
G1  X169.543 E2.5466
G1  Y139.517 E0.6260
G1  X230.457 E2.5466
G1  X230.914 Y139.974  F7000
G1  Y124.086 E0.6642 F2100
G1  X169.086 E2.5849
G1  Y139.974 E0.6642
G1  X230.914 E2.5849
G1  X231.371 Y140.431  F7000
G1  Y123.629 E0.7025 F2100
G1  X168.629 E2.6231
G1  Y140.431 E0.7025
G1  X231.371 E2.6231
G1  X231.828 Y140.888  F7000
G1  Y123.172 E0.7407 F2100
G1  X168.172 E2.6613
G1  Y140.888 E0.7407
G1  X231.828 E2.6613
G1  X230.000 Y139.060  F7000
G1  X170.000
G1  X230.000
; CP WIPE TOWER FIRST LAYER BRIM END
;-----------------------------------

G1 F8640
G1 X226.709 Y139.060 E-0.76000
G1 E-0.04000 F2100.00000
G1 Z0.800 F10800.000
G1 X158.798 Y140.667
G1 Z0.200
G1 E0.80000 F2100.00000
M204 S1000
G1 F1200
G1 X157.953 Y140.837 E0.02704
G1 X89.718 Y140.837 E2.13945
G1 X88.900 Y140.669 E0.02620
G1 X88.204 Y140.207 E0.02620
G1 X87.732 Y139.518 E0.02620
G1 X87.552 Y138.698 E0.02631
G1 X87.551 Y112.290 E0.82800
G1 X87.582 Y71.597 E1.27593
G1 X87.751 Y70.786 E0.02597
G1 X88.212 Y70.093 E0.02608
G1 X88.915 Y69.615 E0.02664
G1 X89.750 Y69.441 E0.02676
G1 X157.987 Y69.441 E2.13951
G1 X158.813 Y69.605 E0.02642
G1 X159.514 Y70.066 E0.02631
G1 X159.992 Y70.760 E0.02642
G1 X160.171 Y71.584 E0.02642
G1 X160.141 Y138.671 E2.10347
G1 X159.974 Y139.489 E0.02620
G1 X159.511 Y140.185 E0.02620
G1 X158.848 Y140.634 E0.02510
G1 F8640
G1 X157.953 Y140.837 E-0.21200
G1 X155.580 Y140.837 E-0.54800
G1 E-0.04000 F2100.00000
G1 Z0.800 F10800.000
G1 X151.521 Y106.728
G1 Z0.200
G1 E0.80000 F2100.00000
G1 F1200
G1 X148.179 Y106.722 E0.10479
G1 X148.137 Y106.479 E0.00773
G1 X147.950 Y105.953 E0.01749
G1 X147.650 Y105.438 E0.01871
G1 X150.662 Y105.438 E0.09445
G1 X151.035 Y105.142 E0.01492
G1 X151.411 Y104.755 E0.01692
G1 X151.521 Y104.594 E0.00613
G1 X151.521 Y106.668 E0.06505
G1 F8640
G1 X148.230 Y106.721 E-0.76000
G1 E-0.04000 F2100.00000
G1 Z0.800 F10800.000
G1 X146.263 Y104.562
G1 Z0.200
G1 E0.80000 F2100.00000
G1 F1200
G1 X143.251 Y104.562 E0.09444
G1 X142.879 Y104.858 E0.01492
G1 X142.502 Y105.245 E0.01692
G1 X142.185 Y105.710 E0.01765
G1 X141.961 Y106.201 E0.01692
G1 X141.856 Y106.564 E0.01185
G1 X138.395 Y106.564 E0.10851
M73 Q1 S118
G1 X138.291 Y106.201 E0.01185
G1 X138.067 Y105.710 E0.01692
G1 X137.881 Y105.438 E0.01033
G1 X140.904 Y105.438 E0.09478
G1 X141.276 Y105.142 E0.01492
G1 X141.653 Y104.755 E0.01692
G1 X141.970 Y104.290 E0.01765
G1 X142.194 Y103.799 E0.01692
G1 X142.297 Y103.436 E0.01183
G1 X145.761 Y103.436 E0.10864
G1 X145.776 Y103.521 E0.00271
G1 X145.964 Y104.047 E0.01749
G1 X146.228 Y104.514 E0.01683
G1 F8640
G1 X143.251 Y104.562 E-0.68745
G1 X143.005 Y104.758 E-0.07255
G1 E-0.04000 F2100.00000
G1 Z0.800 F10800.000
G1 X136.515 Y104.562
G1 Z0.200
G1 E0.80000 F2100.00000
G1 F1200
G1 X133.479 Y104.562 E0.09520
M73 P1 R117
G1 X132.940 Y105.028 E0.02234
G1 X132.737 Y105.255 E0.00955
G1 X132.426 Y105.710 E0.01726
G1 X132.202 Y106.201 E0.01692
G1 X132.098 Y106.564 E0.01185
G1 X128.637 Y106.564 E0.10851
G1 X128.532 Y106.201 E0.01185
G1 X128.308 Y105.710 E0.01692
G1 X128.122 Y105.438 E0.01033
G1 X131.159 Y105.438 E0.09520
G1 X131.698 Y104.972 E0.02234
G1 X131.901 Y104.745 E0.00955
G1 X132.211 Y104.290 E0.01726
G1 X132.436 Y103.799 E0.01692
G1 X132.540 Y103.436 E0.01185
G1 X136.001 Y103.436 E0.10851
G1 X136.105 Y103.799 E0.01185
G1 X136.330 Y104.290 E0.01692
G1 X136.482 Y104.513 E0.00845
G1 F8640
G1 X133.479 Y104.562 E-0.69340
G1 X133.261 Y104.751 E-0.06660
G1 E-0.04000 F2100.00000
G1 Z0.800 F10800.000
G1 X126.757 Y104.562
G1 Z0.200
G1 E0.80000 F2100.00000
G1 F1200
G1 X123.720 Y104.562 E0.09520
G1 X123.181 Y105.028 E0.02234
G1 X122.978 Y105.255 E0.00955
G1 X122.668 Y105.710 E0.01726
G1 X122.444 Y106.201 E0.01692
G1 X122.339 Y106.564 E0.01185
G1 X118.878 Y106.564 E0.10851
G1 X118.774 Y106.201 E0.01185
G1 X118.550 Y105.710 E0.01692
G1 X118.364 Y105.438 E0.01033
G1 X121.400 Y105.438 E0.09520
G1 X121.940 Y104.972 E0.02234
G1 X122.143 Y104.745 E0.00955
G1 X122.453 Y104.290 E0.01726
G1 X122.677 Y103.799 E0.01692
G1 X122.782 Y103.436 E0.01185
G1 X126.244 Y103.436 E0.10858
G1 X126.347 Y103.799 E0.01183
G1 X126.571 Y104.290 E0.01692
G1 X126.723 Y104.513 E0.00845
G1 F8640
G1 X123.720 Y104.562 E-0.69340
G1 X123.502 Y104.751 E-0.06660
G1 E-0.04000 F2100.00000
G1 Z0.800 F10800.000
G1 X116.998 Y104.562
G1 Z0.200
G1 E0.80000 F2100.00000
G1 F1200
G1 X113.962 Y104.562 E0.09520
G1 X113.423 Y105.028 E0.02234
G1 X113.228 Y105.246 E0.00916
G1 X113.050 Y105.484 E0.00931
G1 X112.785 Y105.953 E0.01691
G1 X112.581 Y106.564 E0.02018
G1 X109.120 Y106.564 E0.10851
G1 X109.015 Y106.201 E0.01185
G1 X108.791 Y105.710 E0.01692
G1 X108.605 Y105.438 E0.01033
G1 X111.628 Y105.438 E0.09478
G1 X112.001 Y105.142 E0.01492
G1 X112.377 Y104.755 E0.01692
G1 X112.694 Y104.290 E0.01765
G1 X112.919 Y103.799 E0.01692
G1 X113.023 Y103.436 E0.01185
G1 X116.484 Y103.436 E0.10851
G1 X116.588 Y103.799 E0.01185
G1 X116.813 Y104.290 E0.01692
G1 X116.964 Y104.513 E0.00845
G1 F8640
G1 X113.962 Y104.562 E-0.69340
G1 X113.744 Y104.751 E-0.06660
G1 E-0.04000 F2100.00000
G1 Z0.800 F10800.000
G1 X107.240 Y104.562
G1 Z0.200
G1 E0.80000 F2100.00000
G1 F1200
G1 X104.217 Y104.562 E0.09478
G1 X103.844 Y104.858 E0.01492
G1 X103.468 Y105.245 E0.01692
G1 X103.151 Y105.710 E0.01765
G1 X102.927 Y106.201 E0.01692
G1 X102.822 Y106.564 E0.01185
G1 X99.307 Y106.564 E0.11021
G1 X99.151 Y106.721 E0.00694
G1 X98.479 Y106.721 E0.02108
G1 X98.479 Y103.272 E0.10813
G1 X103.054 Y103.279 E0.14347
G1 X103.210 Y103.436 E0.00694
G1 X106.725 Y103.436 E0.11021
G1 X106.830 Y103.799 E0.01185
G1 X107.054 Y104.290 E0.01692
G1 X107.206 Y104.513 E0.00845
G1 F8640
G1 X104.217 Y104.562 E-0.69025
G1 X103.980 Y104.750 E-0.06975
G1 E-0.04000 F2100.00000
G1 Z0.800 F10800.000
G1 X103.367 Y103.059
G1 Z0.200
G1 E0.80000 F2100.00000
G1 F1200
G1 X106.623 Y103.059 E0.10208
G1 X106.779 Y102.902 E0.00694
G1 X107.031 Y102.902 E0.00791
G1 X107.055 Y103.174 E0.00854
G1 X107.109 Y103.425 E0.00804
G1 X107.183 Y103.665 E0.00788
G1 X107.384 Y104.104 E0.01515
G1 X107.664 Y104.516 E0.01561
G1 X108.001 Y104.861 E0.01514
G1 X108.252 Y105.061 E0.01004
G1 X111.497 Y105.061 E0.10174
G1 X111.747 Y104.861 E0.01004
G1 X112.084 Y104.516 E0.01514
G1 X112.365 Y104.104 E0.01561
G1 X112.565 Y103.665 E0.01515
G1 X112.640 Y103.425 E0.00788
G1 X112.694 Y103.174 E0.00804
G1 X112.717 Y102.902 E0.00854
G1 X112.969 Y102.902 E0.00791
G1 X113.126 Y103.059 E0.00694
G1 X116.381 Y103.059 E0.10208
G1 X116.538 Y102.902 E0.00694
G1 X116.790 Y102.902 E0.00791
G1 X116.813 Y103.174 E0.00854
G1 X116.867 Y103.425 E0.00804
G1 X116.941 Y103.665 E0.00788
G1 X117.142 Y104.104 E0.01515
G1 X117.423 Y104.516 E0.01561
G1 X117.760 Y104.861 E0.01514
G1 X118.010 Y105.061 E0.01004
G1 X121.260 Y105.061 E0.10189
G1 X121.675 Y104.702 E0.01718
G1 X121.845 Y104.512 E0.00802
G1 X122.123 Y104.104 E0.01547
G1 X122.324 Y103.665 E0.01515
G1 X122.398 Y103.425 E0.00788
G1 X122.452 Y103.174 E0.00804
G1 X122.476 Y102.902 E0.00854
G1 X122.728 Y102.902 E0.00791
G1 X122.884 Y103.059 E0.00694
G1 X126.140 Y103.059 E0.10208
G1 X126.296 Y102.902 E0.00694
G1 X126.540 Y102.902 E0.00765
G1 X126.624 Y103.420 E0.01646
G1 X126.700 Y103.665 E0.00802
G1 X126.901 Y104.104 E0.01515
G1 X127.181 Y104.516 E0.01561
G1 X127.518 Y104.861 E0.01514
G1 X127.769 Y105.061 E0.01004
G1 X131.019 Y105.061 E0.10189
G1 X131.433 Y104.702 E0.01718
G1 X131.604 Y104.512 E0.00802
G1 X131.882 Y104.104 E0.01547
G1 X132.082 Y103.665 E0.01515
G1 X132.157 Y103.425 E0.00788
G1 X132.211 Y103.174 E0.00804
G1 X132.234 Y102.902 E0.00854
G1 X132.486 Y102.902 E0.00791
G1 X132.643 Y103.059 E0.00694
G1 X135.898 Y103.059 E0.10208
G1 X136.055 Y102.902 E0.00694
G1 X136.307 Y102.902 E0.00791
G1 X136.330 Y103.174 E0.00854
G1 X136.384 Y103.425 E0.00804
G1 X136.459 Y103.665 E0.00788
G1 X136.659 Y104.104 E0.01515
G1 X136.937 Y104.512 E0.01547
G1 X137.108 Y104.702 E0.00802
G1 X137.522 Y105.061 E0.01718
G1 X140.772 Y105.061 E0.10189
G1 X141.023 Y104.861 E0.01004
G1 X141.360 Y104.516 E0.01514
G1 X141.640 Y104.104 E0.01561
G1 X141.841 Y103.665 E0.01515
G1 X141.917 Y103.420 E0.00802
G1 X142.001 Y102.902 E0.01646
G1 X142.245 Y102.902 E0.00765
G1 X142.401 Y103.059 E0.00694
G1 X145.657 Y103.059 E0.10208
G1 X145.813 Y102.902 E0.00694
G1 X146.057 Y102.902 E0.00765
G1 X146.142 Y103.425 E0.01660
G1 X146.308 Y103.889 E0.01546
G1 X146.548 Y104.314 E0.01531
G1 X146.702 Y104.519 E0.00801
G1 X147.035 Y104.861 E0.01499
G1 X147.286 Y105.061 E0.01004
G1 X150.531 Y105.061 E0.10174
G1 X150.781 Y104.861 E0.01004
G1 X151.118 Y104.516 E0.01514
G1 X151.399 Y104.104 E0.01561
G1 X151.600 Y103.665 E0.01515
G1 X151.674 Y103.425 E0.00788
G1 X151.728 Y103.174 E0.00804
G1 X151.751 Y102.902 E0.00855
G1 X151.898 Y102.902 E0.00462
G1 X151.898 Y107.106 E0.13181
G1 X147.856 Y107.098 E0.12674
G1 X147.771 Y106.575 E0.01661
G1 X147.605 Y106.111 E0.01546
G1 X147.368 Y105.690 E0.01514
G1 X147.212 Y105.481 E0.00818
G1 X146.878 Y105.139 E0.01500
G1 X146.627 Y104.939 E0.01004
G1 X143.383 Y104.939 E0.10174
G1 X143.132 Y105.139 E0.01004
G1 X142.795 Y105.484 E0.01514
G1 X142.514 Y105.896 E0.01561
G1 X142.314 Y106.335 E0.01515
G1 X142.240 Y106.575 E0.00788
G1 X142.185 Y106.826 E0.00804
G1 X142.162 Y107.098 E0.00854
G1 X141.910 Y107.098 E0.00791
G1 X141.754 Y106.941 E0.00694
G1 X138.498 Y106.941 E0.10208
G1 X138.342 Y107.098 E0.00694
G1 X138.089 Y107.098 E0.00791
G1 X138.066 Y106.826 E0.00854
G1 X138.012 Y106.575 E0.00804
G1 X137.938 Y106.335 E0.00788
G1 X137.737 Y105.896 E0.01515
G1 X137.459 Y105.488 E0.01547
G1 X137.289 Y105.298 E0.00802
G1 X136.874 Y104.939 E0.01718
G1 X133.619 Y104.939 E0.10205
G1 X133.205 Y105.298 E0.01718
G1 X133.034 Y105.488 E0.00802
G1 X132.756 Y105.896 E0.01547
G1 X132.555 Y106.335 E0.01515
G1 X132.481 Y106.575 E0.00788
G1 X132.427 Y106.826 E0.00804
G1 X132.404 Y107.098 E0.00854
G1 X132.151 Y107.098 E0.00791
G1 X131.995 Y106.941 E0.00694
G1 X128.739 Y106.941 E0.10208
G1 X128.583 Y107.098 E0.00694
G1 X128.331 Y107.098 E0.00791
G1 X128.308 Y106.826 E0.00854
G1 X128.254 Y106.575 E0.00804
G1 X128.179 Y106.335 E0.00788
G1 X127.979 Y105.896 E0.01515
G1 X127.698 Y105.484 E0.01561
G1 X127.361 Y105.139 E0.01514
G1 X127.110 Y104.939 E0.01004
G1 X123.861 Y104.939 E0.10189
G1 X123.446 Y105.298 E0.01718
G1 X123.276 Y105.488 E0.00802
G1 X122.997 Y105.896 E0.01547
G1 X122.797 Y106.335 E0.01515
G1 X122.722 Y106.575 E0.00788
G1 X122.668 Y106.826 E0.00804
G1 X122.645 Y107.098 E0.00854
G1 X122.393 Y107.098 E0.00791
G1 X122.237 Y106.941 E0.00694
G1 X118.981 Y106.941 E0.10208
G1 X118.825 Y107.098 E0.00694
G1 X118.572 Y107.098 E0.00791
G1 X118.549 Y106.826 E0.00854
G1 X118.495 Y106.575 E0.00804
G1 X118.421 Y106.335 E0.00788
G1 X118.220 Y105.896 E0.01515
G1 X117.939 Y105.484 E0.01561
G1 X117.603 Y105.139 E0.01514
G1 X117.352 Y104.939 E0.01004
G1 X114.102 Y104.939 E0.10189
G1 X113.688 Y105.298 E0.01718
G1 X113.520 Y105.485 E0.00788
G1 X113.367 Y105.690 E0.00804
G1 X113.129 Y106.111 E0.01514
G1 X112.965 Y106.571 E0.01532
G1 X112.910 Y106.826 E0.00818
G1 X112.887 Y107.098 E0.00854
G1 X112.634 Y107.098 E0.00791
G1 X112.478 Y106.941 E0.00694
G1 X109.222 Y106.941 E0.10208
G1 X109.066 Y107.098 E0.00694
G1 X108.814 Y107.098 E0.00791
G1 X108.791 Y106.826 E0.00854
G1 X108.737 Y106.575 E0.00804
G1 X108.662 Y106.335 E0.00788
G1 X108.462 Y105.896 E0.01515
G1 X108.183 Y105.488 E0.01547
G1 X108.013 Y105.298 E0.00802
G1 X107.598 Y104.939 E0.01718
G1 X104.349 Y104.939 E0.10189
G1 X104.098 Y105.139 E0.01004
G1 X103.761 Y105.484 E0.01514
G1 X103.480 Y105.896 E0.01561
G1 X103.280 Y106.335 E0.01515
G1 X103.205 Y106.575 E0.00788
G1 X103.151 Y106.826 E0.00804
G1 X103.128 Y107.098 E0.00854
G1 X102.876 Y107.098 E0.00791
G1 X102.720 Y106.941 E0.00694
G1 X99.464 Y106.941 E0.10208
G1 X99.308 Y107.098 E0.00694
G1 X98.102 Y107.098 E0.03782
G1 X98.102 Y102.894 E0.13180
G1 X103.211 Y102.902 E0.16020
G1 X103.325 Y103.017 E0.00506
G1 X103.563 Y103.408 F10800.000
G1 F8640
G1 X106.616 Y103.059 E-0.76000
G1 E-0.04000 F2100.00000
G1 Z0.800 F10800.000
G1 X106.735 Y104.449
G1 Z0.200
G1 E0.80000 F2100.00000
G1 F1200
G1 X106.005 Y103.719 E0.03394
G1 X105.446 Y103.719 E0.01836
G1 X106.006 Y104.280 E0.02605
G1 X105.447 Y104.280 E0.01836
G1 X104.887 Y103.719 E0.02605
G1 X104.328 Y103.719 E0.01836
G1 X104.889 Y104.280 E0.02605
G1 X104.330 Y104.280 E0.01836
G1 X103.769 Y103.719 E0.02605
G1 X103.210 Y103.719 E0.01836
G1 X103.925 Y104.433 E0.03320
G1 X103.618 Y104.686 E0.01305
G1 X102.495 Y103.562 E0.05221
G1 X101.936 Y103.562 E0.01836
G1 X103.342 Y104.969 E0.06537
G1 X103.248 Y105.065 E0.00442
G1 X103.099 Y105.284 E0.00872
G1 X101.376 Y103.561 E0.08007
G1 X100.816 Y103.560 E0.01841
G1 X102.879 Y105.624 E0.09589
G1 X102.704 Y106.007 E0.01386
G1 X100.256 Y103.559 E0.11378
G1 X99.695 Y103.557 E0.01841
G1 X102.419 Y106.281 E0.12657
G1 X101.860 Y106.281 E0.01836
G1 X99.135 Y103.556 E0.12662
G1 X98.761 Y103.555 E0.01229
G1 X98.761 Y103.741 E0.00610
G1 X101.301 Y106.281 E0.11803
G1 X100.742 Y106.281 E0.01836
G1 X98.761 Y104.300 E0.09206
G1 X98.761 Y104.859 E0.01836
G1 X100.184 Y106.281 E0.06609
G1 X99.625 Y106.281 E0.01836
G1 X98.761 Y105.418 E0.04012
G1 X98.761 Y105.977 E0.01836
G1 X99.248 Y106.463 E0.02261
G1 F8640
G1 X98.761 Y105.977 E-0.15885
G1 X98.761 Y105.418 E-0.12905
G1 X99.625 Y106.281 E-0.28189
G1 X100.184 Y106.281 E-0.12905
