; generated by PrusaSlicer 2.1.0+win64 on 2019-10-04 at 11:41:28 UTC

; 

; external perimeters extrusion width = 0.45mm
; perimeters extrusion width = 0.45mm
; infill extrusion width = 0.45mm
; solid infill extrusion width = 0.45mm
; top infill extrusion width = 0.40mm
; first layer extrusion width = 0.42mm

; external perimeters extrusion width = 0.45mm
; perimeters extrusion width = 0.45mm
; infill extrusion width = 0.45mm
; solid infill extrusion width = 0.45mm
; top infill extrusion width = 0.40mm
; first layer extrusion width = 0.42mm

; external perimeters extrusion width = 0.45mm
; perimeters extrusion width = 0.45mm
; infill extrusion width = 0.45mm
; solid infill extrusion width = 0.45mm
; top infill extrusion width = 0.40mm
; first layer extrusion width = 0.42mm

; external perimeters extrusion width = 0.45mm
; perimeters extrusion width = 0.45mm
; infill extrusion width = 0.45mm
; solid infill extrusion width = 0.45mm
; top infill extrusion width = 0.40mm
; first layer extrusion width = 0.42mm

M73 P0 R60
M73 Q0 S61
M201 X1000 Y1000 Z1000 E8000 ; sets maximum accelerations, mm/sec^2
M203 X200 Y200 Z12 E120 ; sets maximum feedrates, mm/sec
M204 P1250 R1250 T1250 ; sets acceleration (P, T) and retract acceleration (R), mm/sec^2
M205 X8.00 Y8.00 Z0.40 E1.50 ; sets the jerk limits, mm/sec
M205 S0 T0 ; sets the minimum extruding and travel feed rate, mm/sec
M107
M862.3 P "MK3SMMU2S" ; printer model check
M862.1 P0.4 ; nozzle diameter check
M115 U3.8.0 ; tell printer latest fw version
G90 ; use absolute coordinates
M83 ; extruder relative mode
M104 S215 ; set extruder temp
M140 S60 ; set bed temp
M190 S60 ; wait for bed temp
M109 S215 ; wait for extruder temp
G28 W ; home all without mesh bed level
G80 ; mesh bed leveling
G21 ; set units to millimeters

; Send the filament type to the MMU2.0 unit.
; E stands for extruder number, F stands for filament type (0: default; 1:flex; 2: PVA)
M403 E0 F0
M403 E1 F0
M403 E2 F0
M403 E3 F0
M403 E4 F0


;go outside print area
G1 Y-3.0 F1000.0
G1 Z0.4 F1000.0
; select extruder
T2
; initial load
G1 X55.0 E29.0 F1073.0
M73 Q0 S60
M73 P0 R60
G1 X5.0 E29.0 F1800.0
G1 X55.0 E8.0 F2000.0
G1 Z0.3 F1000.0
G92 E0.0
G1 X240.0 E25.0 F2200.0
G1 Y-2.0 F1000.0
G1 X55.0 E25 F1400.0
G1 Z0.20 F1000.0
G1 X5.0 E4.0 F1000.0
G92 E0.0


M221 S95
G92 E0.0
G21 ; set units to millimeters
G90 ; use absolute coordinates
M83 ; use relative distances for extrusion
T2
M900 K30 ; Filament gcode
G1 Z0.200 F10800.000
;BEFORE_LAYER_CHANGE
G92 E0.0
;0.2


G1 E-0.80000 F2100.00000
G1 Z0.800 F10800.000
G1 Z0.200
;AFTER_LAYER_CHANGE
;0.2
G1 E-2.20000 F2100.00000
G1 Z0.800 F10800.000
G1 X233.000 Y125.000
G1 Z0.200
G1 E3.00000 F2100.00000
;-------------------------------------
; CP WIPE TOWER FIRST LAYER BRIM START
G1  X233.000 Y139.060 E0.8016 F2400
G1  X230.457 Y139.517  F7000
G1  Y124.543 E0.6260 F2100
G1  X169.543 E2.5466
G1  Y139.517 E0.6260
G1  X230.457 E2.5466
G1  X230.914 Y139.974  F7000
G1  Y124.086 E0.6642 F2100
G1  X169.086 E2.5849
G1  Y139.974 E0.6642
G1  X230.914 E2.5849
G1  X231.371 Y140.431  F7000
G1  Y123.629 E0.7025 F2100
G1  X168.629 E2.6231
G1  Y140.431 E0.7025
G1  X231.371 E2.6231
G1  X231.828 Y140.888  F7000
G1  Y123.172 E0.7407 F2100
G1  X168.172 E2.6613
G1  Y140.888 E0.7407
G1  X231.828 E2.6613
G1  X230.000 Y139.060  F7000
G1  X170.000
G1  X230.000
; CP WIPE TOWER FIRST LAYER BRIM END
;-----------------------------------

G1 F8640
G1 X226.709 Y139.060 E-0.76000
G1 E-0.04000 F2100.00000
G1 Z0.800 F10800.000
G1 X158.819 Y140.659
G1 Z0.200
G1 E0.80000 F2100.00000
M204 S1000
G1 F1200
G1 X157.959 Y140.837 E0.02754
G1 X89.704 Y140.837 E2.14009
G1 X89.085 Y140.737 E0.01964
G1 X88.520 Y140.466 E0.01964
G1 X88.058 Y140.048 E0.01953
G1 X87.730 Y139.515 E0.01964
G1 X87.552 Y138.662 E0.02732
G1 X87.553 Y111.389 E0.85511
G1 X87.663 Y110.783 E0.01930
G1 X87.936 Y110.232 E0.01930
G1 X88.350 Y109.781 E0.01919
G1 X88.876 Y109.461 E0.01930
G1 X89.733 Y109.283 E0.02743
G1 X157.957 Y109.283 E2.13912
G1 X158.776 Y109.444 E0.02620
G1 X159.479 Y109.903 E0.02631
G1 X159.957 Y110.592 E0.02631
G1 X160.141 Y111.411 E0.02631
G1 X160.139 Y138.747 E0.85712
G1 X160.028 Y139.345 E0.01908
G1 X159.753 Y139.893 E0.01919
G1 X159.339 Y140.343 E0.01919
G1 X158.870 Y140.627 E0.01719
G1 F8640
G1 X157.959 Y140.837 E-0.21594
G1 X155.602 Y140.837 E-0.54406
G1 E-0.04000 F2100.00000
G1 Z0.800 F10800.000
G1 X139.277 Y119.841
G1 Z0.200
G1 E0.80000 F2100.00000
G1 F1200
G1 X135.089 Y124.404 E0.19421
G1 X134.131 Y123.447 E0.04245
G1 X133.667 Y123.029 E0.01960
G1 X133.275 Y122.724 E0.01557
G1 X133.201 Y123.793 E0.03359
G1 X133.192 Y124.764 E0.03046
G1 X133.208 Y125.419 E0.02055
G1 X133.247 Y126.037 E0.01941
G1 X133.431 Y127.564 E0.04821
G1 X134.024 Y127.054 E0.02449
G1 X134.780 Y126.241 E0.03480
G1 X135.149 Y126.066 E0.01282
G1 X135.593 Y126.069 E0.01393
G1 X135.927 Y126.229 E0.01164
G1 X136.219 Y126.514 E0.01279
G1 X136.473 Y126.908 E0.01467
G1 X136.928 Y127.713 E0.02901
G1 X137.261 Y128.144 E0.01708
G1 X137.660 Y128.529 E0.01737
G1 X138.667 Y129.371 E0.04116
G1 X138.913 Y129.671 E0.01216
G1 X139.078 Y130.044 E0.01278
G1 X139.091 Y130.395 E0.01103
G1 X138.980 Y130.723 E0.01085
G1 X138.681 Y131.103 E0.01515
G1 X137.575 Y132.038 E0.04541
G1 X137.057 Y132.442 E0.02060
G1 X136.232 Y133.005 E0.03131
G1 X135.445 Y133.491 E0.02902
G1 X135.914 Y134.385 E0.03167
G1 X136.068 Y134.767 E0.01290
G1 X136.094 Y135.070 E0.00953
G1 X135.935 Y135.410 E0.01178
G1 X135.644 Y135.600 E0.01090
G1 X135.107 Y135.781 E0.01776
G1 X134.434 Y136.163 E0.02426
G1 X131.232 Y137.674 E0.11103
G1 X129.341 Y135.700 E0.08571
G1 X128.752 Y135.811 E0.01879
G1 X126.910 Y136.037 E0.05820
G1 X125.972 Y136.112 E0.02948
G1 X124.572 Y136.146 E0.04391
G1 X123.175 Y136.104 E0.04381
G1 X121.786 Y136.002 E0.04368
G1 X120.855 Y135.888 E0.02940
G1 X119.454 Y135.662 E0.04451
G1 X119.201 Y135.984 E0.01284
G1 X118.115 Y137.538 E0.05944
G1 X117.903 Y137.714 E0.00865
G1 X117.598 Y137.794 E0.00990
G1 X117.319 Y137.748 E0.00883
G1 X116.837 Y137.531 E0.01659
G1 X116.011 Y137.320 E0.02672
G1 X115.128 Y137.033 E0.02913
G1 X114.409 Y136.828 E0.02344
G1 X113.494 Y136.474 E0.03077
G1 X112.953 Y136.383 E0.01719
G1 X112.534 Y136.213 E0.01418
G1 X112.358 Y135.645 E0.01864
G1 X112.569 Y135.242 E0.01427
G1 X113.337 Y134.294 E0.03825
G1 X113.825 Y133.592 E0.02682
G1 X112.760 Y132.910 E0.03966
G1 X112.349 Y132.625 E0.01567
G1 X111.573 Y132.027 E0.03074
G1 X110.841 Y131.372 E0.03080
G1 X110.482 Y131.009 E0.01600
G1 X109.830 Y130.255 E0.03123
G1 X109.253 Y129.438 E0.03137
G1 X108.991 Y128.995 E0.01614
G1 X108.758 Y128.544 E0.01592
G1 X108.551 Y128.080 E0.01593
G1 X108.371 Y127.605 E0.01593
G1 X108.219 Y127.120 E0.01593
G1 X108.094 Y126.621 E0.01613
G1 X107.969 Y125.870 E0.02387
G1 X107.933 Y125.345 E0.01650
G1 X107.943 Y124.823 E0.01638
G1 X107.996 Y124.301 E0.01644
G1 X108.143 Y123.556 E0.02382
G1 X108.283 Y123.061 E0.01613
G1 X108.450 Y122.580 E0.01594
G1 X108.644 Y122.111 E0.01592
G1 X108.863 Y121.655 E0.01589
G1 X109.107 Y121.212 E0.01585
G1 X109.377 Y120.778 E0.01602
G1 X109.959 Y119.979 E0.03100
G1 X110.287 Y119.587 E0.01604
G1 X110.968 Y118.870 E0.03098
G1 X111.709 Y118.213 E0.03105
G1 X112.118 Y117.900 E0.01615
G1 X112.777 Y117.465 E0.02477
G1 X112.034 Y116.186 E0.04636
G1 X111.788 Y115.684 E0.01752
G1 X111.839 Y115.135 E0.01728
G1 X112.253 Y114.879 E0.01528
G1 X112.823 Y114.731 E0.01846
G1 X113.722 Y114.332 E0.03084
G1 X116.972 Y113.124 E0.10870
G1 X118.708 Y114.942 E0.07883
G1 X119.055 Y114.850 E0.01126
G1 X120.565 Y114.576 E0.04811
G1 X121.325 Y114.460 E0.02409
G1 X122.095 Y114.369 E0.02433
G1 X123.626 Y114.271 E0.04809
G1 X125.159 Y114.258 E0.04805
G1 X126.688 Y114.315 E0.04798
G1 X127.466 Y114.387 E0.02450
G1 X129.133 Y114.622 E0.05281
G1 X129.352 Y114.377 E0.01031
G1 X130.423 Y112.984 E0.05508
G1 X130.685 Y112.784 E0.01034
G1 X130.983 Y112.702 E0.00970
G1 X131.269 Y112.714 E0.00899
G1 X131.556 Y112.792 E0.00932
G1 X131.924 Y112.950 E0.01256
G1 X134.401 Y113.873 E0.08286
G1 X135.052 Y114.173 E0.02249
G1 X135.260 Y114.243 E0.00687
G1 X135.557 Y114.299 E0.00946
G1 X135.860 Y114.442 E0.01052
G1 X136.111 Y114.832 E0.01455
M73 Q2 S59
G1 X136.062 Y115.261 E0.01353
G1 X135.538 Y116.118 E0.03149
G1 X135.205 Y116.752 E0.02245
G1 X136.066 Y117.262 E0.03139
G1 X137.027 Y117.916 E0.03644
G1 X137.648 Y118.402 E0.02471
G1 X139.232 Y119.801 E0.06628
G1 X138.739 Y119.869 F10800.000
G1 F1200
G1 X135.077 Y123.859 E0.16982
G1 X134.391 Y123.173 E0.03042
G1 X133.909 Y122.739 E0.02034
G1 X132.947 Y121.991 E0.03820
G1 X132.824 Y123.778 E0.05615
G1 X132.815 Y124.767 E0.03101
G1 X132.831 Y125.436 E0.02099
G1 X132.871 Y126.073 E0.02001
G1 X133.047 Y127.466 E0.04403
G1 X133.113 Y128.281 E0.02562
G1 X133.830 Y127.729 E0.02839
M73 P2 R59
G1 X134.287 Y127.325 E0.01912
G1 X135.007 Y126.551 E0.03313
G1 X135.233 Y126.443 E0.00785
G1 X135.506 Y126.445 E0.00856
G1 X135.708 Y126.542 E0.00705
G1 X135.926 Y126.755 E0.00952
G1 X136.150 Y127.103 E0.01299
G1 X136.613 Y127.922 E0.02951
G1 X136.980 Y128.397 E0.01879
G1 X137.408 Y128.810 E0.01866
G1 X138.398 Y129.637 E0.04046
G1 X138.589 Y129.870 E0.00943
G1 X138.704 Y130.130 E0.00891
G1 X138.712 Y130.340 E0.00658
G1 X138.644 Y130.541 E0.00664
G1 X138.408 Y130.839 E0.01192
G1 X137.338 Y131.745 E0.04398
G1 X136.835 Y132.137 E0.01999
G1 X136.025 Y132.690 E0.03075
G1 X135.457 Y133.051 E0.02109
G1 X134.940 Y133.342 E0.01860
G1 X135.572 Y134.544 E0.04255
G1 X135.697 Y134.855 E0.01053
G1 X135.710 Y135.001 E0.00460
G1 X135.639 Y135.153 E0.00525
G1 X135.483 Y135.255 E0.00585
G1 X135.116 Y135.367 E0.01202
G1 X134.939 Y135.443 E0.00604
G1 X134.260 Y135.828 E0.02447
G1 X131.316 Y137.217 E0.10208
G1 X129.472 Y135.291 E0.08361
G1 X128.694 Y135.439 E0.02482
G1 X126.872 Y135.662 E0.05756
G1 X125.953 Y135.735 E0.02890
G1 X124.573 Y135.769 E0.04327
G1 X123.195 Y135.727 E0.04324
G1 X121.823 Y135.627 E0.04313
G1 X120.908 Y135.515 E0.02889
G1 X119.303 Y135.246 E0.05103
G1 X118.898 Y135.759 E0.02051
G1 X117.835 Y137.280 E0.05818
G1 X117.726 Y137.371 E0.00443
G1 X117.580 Y137.409 E0.00476
G1 X117.429 Y137.384 E0.00477
G1 X116.962 Y137.173 E0.01607
G1 X116.116 Y136.958 E0.02737
G1 X115.238 Y136.672 E0.02896
G1 X114.529 Y136.470 E0.02311
G1 X113.605 Y136.112 E0.03108
G1 X113.371 Y136.059 E0.00752
G1 X113.050 Y136.015 E0.01013
G1 X112.841 Y135.931 E0.00708
G1 X112.764 Y135.682 E0.00816
G1 X112.886 Y135.450 E0.00821
G1 X113.640 Y134.520 E0.03755
G1 X114.088 Y133.864 E0.02490
G1 X114.390 Y133.513 E0.01454
G1 X112.969 Y132.596 E0.05303
G1 X112.572 Y132.320 E0.01515
G1 X111.814 Y131.737 E0.03000
G1 X111.101 Y131.098 E0.03000
G1 X110.759 Y130.752 E0.01525
G1 X110.128 Y130.023 E0.03025
G1 X109.570 Y129.233 E0.03031
G1 X109.321 Y128.812 E0.01532
G1 X109.098 Y128.380 E0.01525
G1 X108.900 Y127.936 E0.01525
G1 X108.728 Y127.481 E0.01525
G1 X108.582 Y127.018 E0.01524
G1 X108.463 Y126.544 E0.01530
G1 X108.344 Y125.826 E0.02281
G1 X108.311 Y125.336 E0.01542
G1 X108.320 Y124.845 E0.01538
G1 X108.370 Y124.357 E0.01540
G1 X108.510 Y123.643 E0.02280
G1 X108.643 Y123.174 E0.01530
G1 X108.802 Y122.714 E0.01524
G1 X108.988 Y122.265 E0.01524
G1 X109.199 Y121.827 E0.01523
G1 X109.433 Y121.402 E0.01522
G1 X109.690 Y120.989 E0.01527
G1 X110.256 Y120.211 E0.03016
G1 X110.569 Y119.838 E0.01527
G1 X111.230 Y119.141 E0.03011
G1 X111.949 Y118.505 E0.03011
G1 X112.337 Y118.208 E0.01532
G1 X113.276 Y117.586 E0.03531
G1 X112.366 Y116.008 E0.05711
G1 X112.173 Y115.613 E0.01378
G1 X112.197 Y115.357 E0.00807
G1 X112.403 Y115.230 E0.00760
G1 X112.948 Y115.088 E0.01765
G1 X113.864 Y114.681 E0.03144
G1 X116.870 Y113.564 E0.10056
G1 X118.589 Y115.364 E0.07804
G1 X119.137 Y115.218 E0.01778
G1 X120.627 Y114.948 E0.04747
G1 X121.375 Y114.834 E0.02373
G1 X122.129 Y114.744 E0.02381
G1 X123.640 Y114.648 E0.04745
G1 X125.153 Y114.635 E0.04746
G1 X126.663 Y114.692 E0.04738
G1 X127.422 Y114.762 E0.02390
G1 X129.269 Y115.022 E0.05849
G1 X129.643 Y114.617 E0.01727
G1 X130.691 Y113.253 E0.05393
G1 X130.855 Y113.128 E0.00648
G1 X131.026 Y113.081 E0.00555
G1 X131.211 Y113.089 E0.00580
G1 X131.432 Y113.149 E0.00718
G1 X131.784 Y113.301 E0.01202
G1 X134.256 Y114.222 E0.08271
G1 X134.913 Y114.524 E0.02270
G1 X135.165 Y114.608 E0.00831
G1 X135.439 Y114.661 E0.00876
G1 X135.602 Y114.737 E0.00562
G1 X135.721 Y114.923 E0.00693
G1 X135.697 Y115.135 E0.00671
G1 X135.210 Y115.931 E0.02925
G1 X134.868 Y116.582 E0.02304
G1 X134.665 Y116.870 E0.01105
G1 X135.864 Y117.581 E0.04370
G1 X136.805 Y118.220 E0.03568
G1 X137.406 Y118.692 E0.02396
G1 X138.694 Y119.829 E0.05388
G1 X139.037 Y120.136 F10800.000
G1 F8640
G1 X136.496 Y122.279 E-0.76000
G1 E-0.04000 F2100.00000
G1 Z0.800 F10800.000
G1 X156.144 Y112.059
G1 Z0.200
G1 E0.80000 F2100.00000
G1 F1200
G1 X156.160 Y124.701 E0.39639
G1 X156.020 Y124.991 E0.01010
G1 X155.930 Y125.306 E0.01027
G1 X155.866 Y125.867 E0.01769
G1 X155.930 Y126.427 E0.01769
G1 X156.020 Y126.742 E0.01027
G1 X156.160 Y127.032 E0.01010
G1 X156.144 Y138.061 E0.34581
G1 X91.549 Y138.061 E2.02535
G1 X91.533 Y127.032 E0.34581
G1 X91.673 Y126.742 E0.01010
G1 X91.763 Y126.427 E0.01027
G1 X91.827 Y125.867 E0.01769
G1 X91.763 Y125.306 E0.01769
G1 X91.673 Y124.991 E0.01027
G1 X91.533 Y124.701 E0.01010
G1 X91.549 Y112.059 E0.39638
G1 X156.084 Y112.059 E2.02345
G1 X156.521 Y111.682 F10800.000
G1 F1200
G1 X156.537 Y124.786 E0.41089
G1 X156.374 Y125.126 E0.01181
G1 X156.301 Y125.380 E0.00829
G1 X156.246 Y125.867 E0.01536
G1 X156.301 Y126.353 E0.01536
G1 X156.374 Y126.607 E0.00829
G1 X156.537 Y126.947 E0.01181
G1 X156.521 Y138.439 E0.36031
G1 X91.172 Y138.439 E2.04896
G1 X91.156 Y126.947 E0.36031
G1 X91.319 Y126.607 E0.01181
G1 X91.392 Y126.353 E0.00829
G1 X91.448 Y125.867 E0.01536
G1 X91.392 Y125.380 E0.01536
G1 X91.319 Y125.126 E0.00829
G1 X91.156 Y124.786 E0.01181
G1 X91.172 Y111.682 E0.41089
G1 X156.461 Y111.682 E2.04707
G1 X156.344 Y112.041 F10800.000
G1 F8640
G1 X156.480 Y114.973 E-0.76000
G1 E-0.04000 F2100.00000
G1 Z0.800 F10800.000
G1 X124.178 Y130.241
G1 Z0.200
G1 E0.80000 F2100.00000
G1 F1200
G1 X121.682 Y129.998 E0.07865
G1 X121.210 Y129.936 E0.01491
G1 X121.210 Y128.068 E0.05857
G1 X121.260 Y127.610 E0.01442
G1 X121.276 Y127.194 E0.01306
G1 X121.908 Y127.827 E0.02804
G1 X124.137 Y130.197 E0.10203
G1 X124.999 Y130.597 F10800.000
G1 F1200
G1 X124.702 Y130.631 E0.00937
G1 X124.008 Y130.614 E0.02177
G1 X121.638 Y130.373 E0.07469
G1 X120.833 Y130.266 E0.02545
G1 X120.833 Y128.047 E0.06957
G1 X120.884 Y127.583 E0.01465
G1 X120.900 Y127.166 E0.01307
G1 X120.877 Y126.672 E0.01551
G1 X120.822 Y126.107 E0.01782
G1 X120.922 Y126.204 E0.00438
G1 X121.363 Y126.748 E0.02197
G1 X122.179 Y127.564 E0.03618
G1 X124.515 Y130.048 E0.10691
G1 X124.959 Y130.552 E0.02107
G1 X124.706 Y130.538 F10800.000
G1 F8640
G1 X124.702 Y130.631 E-0.06212
G1 X124.008 Y130.614 E-0.16030
G1 X121.691 Y130.378 E-0.53759
G1 E-0.04000 F2100.00000
G1 Z0.800 F10800.000
G1 X115.710 Y127.701
G1 Z0.200
G1 E0.80000 F2100.00000
G1 F1200
G1 X115.311 Y127.382 E0.01603
G1 X114.943 Y127.017 E0.01623
G1 X114.611 Y126.617 E0.01631
G1 X114.342 Y126.194 E0.01572
G1 X114.253 Y126.004 E0.00658
G1 X114.148 Y125.683 E0.01058
G1 X114.099 Y125.346 E0.01068
G1 X114.119 Y124.899 E0.01405
G1 X114.164 Y124.675 E0.00715
G1 X114.320 Y124.258 E0.01397
G1 X114.428 Y124.067 E0.00688
G1 X114.723 Y123.659 E0.01579
G1 X115.217 Y123.111 E0.02312
G1 X115.418 Y123.913 E0.02590
G1 X115.516 Y124.420 E0.01620
G1 X115.646 Y125.475 E0.03334
G1 X115.716 Y127.095 E0.05083
G1 X115.711 Y127.641 E0.01711
G1 X116.064 Y128.387 F10800.000
G1 F1200
G1 X116.045 Y128.443 E0.00186
G1 X115.060 Y127.664 E0.03939
G1 X114.665 Y127.272 E0.01744
G1 X114.306 Y126.839 E0.01763
G1 X114.011 Y126.377 E0.01720
G1 X113.901 Y126.144 E0.00807
G1 X113.780 Y125.769 E0.01234
G1 X113.722 Y125.375 E0.01248
G1 X113.720 Y125.111 E0.00830
G1 X113.746 Y124.843 E0.00842
G1 X113.798 Y124.581 E0.00838
G1 X113.878 Y124.329 E0.00828
G1 X113.983 Y124.090 E0.00820
G1 X114.110 Y123.863 E0.00814
G1 X114.430 Y123.422 E0.01710
G1 X114.998 Y122.790 E0.02664
G1 X115.411 Y122.400 E0.01780
G1 X115.786 Y123.831 E0.04637
G1 X115.889 Y124.361 E0.01693
